X: 34607
T: Rizla, The
R: reel
M: 4/4
K: Aminor
|:c2 cA B2 BA|Beed BAAB|c2 cA B2 BA|GEDE GDEG|
AB c/B/A B2 BA|Beed BAAB|c/B/A BG AGEG|ED D/E/G A4:|
|:DEFA E2 AB|c/B/A BG AGEG|DEFA G2 DE-|EDEA EA,A,E|
DEFA E2 AB|c/B/A Bc edBc-|cABG ED D/E/G|1 A6- AA:|2 A6- AB||
|:c2 cA B2 BA|GEDE GDEG|AB c/B/A B2 BA|Beed BAAB|
c2 cA B2 BA|GEDE GDEG|AB c/B/A B2 BA|1 Bded BAAB:|2 Bded BAGA||
|:DEAE cEAE|DEeE dEeE|DEAB c/B/A ce|aged cAGA|
DEAE cEAE|DEeE deAB|c2 cA B2 BA|1 Beed BAGA:|2 Beed BA A2||

